!!!COM: Sarmad, Ustad Salim
!!!CDT: b. 1928
!!!OTL: National Anthem, Afghanistan
!!!ENC: Davis, Matthew J.
!!Vocal Line Only
**kern
*clefG2
*k[b-e-a-]
*E-:
*M2/2
=1-
1r
=2
1r
=3
1r
=4
1r
!END OF INTRO
=5
4bb-
4bb-
4c
4bb-
=6
4e-
4e-
2e-
=7
4e-
4e-
4g
4a-
=8
2b-
8a-
[8cc
4cc]
=9
1b-
=10
4e-
4e-
4g
4a-
=11
2b-
8a-
[8cc
4cc]
=12
1b-
=13
4b-
4a-
4g
4f
=14
2g
8f
[8f
4f]
=15
1e-
=16
3b-
8a
4b-
4cc
=17
4b-
4g
2a-
=18
3a-
8g
4a-
4cc
=19
4b-
4a-
2g
=20
3b-
8a
4b-
4cc
=21
4b-
5g
2a-
=22
3a-
8g
4a-
4cc
=23
4b-
4a-
2g
=24
3g
8a-
4b-
4cc
=25
4dd
4cc
2b-
=26
3b-
8a-
4g
4f
=27
2g
2f
==|!28
1e-
*-
